X:407
T:Good Humour (CDM)
S:Colin Hume's website,  colinhume.com  - chords can also be printed below the stave.
Q:1/2=120
M:2/2
R:Reel
L:1/4
%%MIDI ratio 3 1
N:The suggested tune for "Circassian Circle" in the CDM
K:G
d | "G"GB/B/ Bd | "C"e/f/g "G"d2 | "C"e/f/g "G"dB | "D7"BA A2 |\
"G"GB/B/ Bd | "C"e/f/g "G/B"dB | "C"e/f/g "D7"fd | "G"g2 "G7"g2 |
"C"ge/e/ ee | "G"gd/d/ d2 | "D7"dA/A/ Ac | "G"BG/G/ "G7"G2 |\
"C"ge/e/ ee | "G"gd/d/ d>B | "A7"AA/A/ Ag | "D7"fe d/c/B/A/ |
"G"GB/B/ Bd | "C"e/f/g "G"d2 | "C"e/f/g "G"dB | "D7"BA A2 |\
"G"GB/B/ Bd | "C"e/f/g "G/B"dB | "C"e/f/g "D7"fd | "G"g2 "G7"g2 |
K:C
"C"ee/e/ ee | "C/E"g2 fe | "G7"ed AB | "C"dc G2 |\
"C"ee/e/ ee | "F"a2 gf | "G7"fg/f/ ed | "C"c2 "D7"d2 |]

